X:155
T:Installation THO3.155, The
T:St.George's Fields,aka THO3.155
O:England;London
M:6/8
L:1/8
Z:vmp. Peter Dunk 2011.from a transcription by Fynn Titford-Mock 2006-9
B:Thompson's Compleat Collection of 200 Favourite Country Dances Vol. III.1765-72
Q:3/8=110
K:G
BAB| G2 d d2 e|d3 cdc|B2 B ABA|G2 D BAB|G2 d d2 e|d3 gag| f2 f efe|d3:|
|:d2 d|ded c2 B|c2 A c2 c|Bcd c2 B|A3 d2 d| e2 e fga|g2 G cdc|B2 B ABA| G3:|
K:Bb
|:BAG|d2 e d2 c|B2 A BAG|^F2 G c2 B| A3 BAB| c2 e d2 c|B2 F fed|gfe d2 c|B3:|
|:dcd|e2 d c2 d|B2 A Bcd|^F3 gab|\
a2 g ^fga|g3 dcd"_*see lll.88 St Georges Fields"|edc B2 A|G3:|

